X:1
T: Winston Fitzgerald's Jig
C:Sandy MacIntyre
R:Jig
Q:180
K:G
M:6/8
L:1/16
|:c2|B2A2B2 G2B2d2|c2B2c2 A2d2c2|B2G2E2 D2B,2G,2|C2A,2A,2 A,4c2|
B2A2B2 G2B2d2|c2B2c2 A2d2c2|B2d2g2 B2c2A2|B2G2G2 G4:|
Bd|:g2f2g2 e2c2e2|d2B2G2 G4d2|^c2d2e2 A2a2g2|f2d2d2 d2e2f2|
g2f2g2 e2c2A2|B2d2g2 c2e2g2|B2d2g2 A2g2f2|1g6 g2b2a2:||2g6 g4||
